X: 752
T: Feng mianyi
L: 1/8
M: 2/4
K: G
G G G F/ E/ [I:setbarnb 1]| 
D DD2 | 
A d c B/ A/ | 
G4 | 
A d c B/ d/ | 
A A A d | 
G F/ E/ D z | 
B A/ B/ D/ E/ D/ B,/ | 
D4 |]

@@@ Tune index: 9626
